X: 191
T: Daolaji
%%abc-version 2.0
%%abcx-abcm2ps-target-version 5.9.1 (29 Sep 2008)
%%abc-creator hum2abc beta
%%abcx-conversion-date 2013/10/02 07:44:28
%%abc-edited-by Helmut Schaffrath
%%humdrum-veritas 641012656
%%humdrum-veritas-data 3523973692
%%continueall 1
%%barnumbers 0
L: 1/8
M: 3/4
K: G
B2B2B2 [I:setbarnb 1]| 
B2B2A B | 
d4e d | 
B> d B AG2 | 
A BB2B2 | 
A B A G E D | 
E2G2(3E D E | 
D6 | 
A BB4 | 
B2B> A G A | 
d4e d | 
B> d B AG2 | 
A BB2B2 | 
A B A G E D | 
E2G2(3E D E | 
D6 | 
E> D E G E D | 
E> D E G E D | 
G2G3A | 
G4A2 | 
B2B2B2 | 
B2>A2 G A | 
d dd2e d | 
B> d B AG2 | 
A BB2B2 | 
A B A G E D | 
E2G2(3E D E | 
D6 |]  



